X:75
T: Bass River
C: BB
R: hornpipe
Q: 1/8=320
M: 4/4
L: 1/8
K: D
A|"D"dcdA "D"(3Bcd AF|"G"GFGB "Bm"AFDB,|"D"A,DFA "D"dcdA|"Bm"(3Bcd AF "A"E3 A|
"D"dfec "D"dAFA|"G"GBAF "Em"EDB,E|"D"DF (3FEF "A"EAce|"D"dBAF D3 :|
A|"D"fdfa "G"gB (3BAB|"A"cBce "D"dF (3FEF|"G"GB"A"Ac "G"Bd"A"ce|"D"dfaf "A"e3 g |
"D"fdfa "G"gB (3BAB|"A"cBce "D"dF (3FEF|"G"GB (3BcB "A"Acec|"D"dBAF D3 :|
%%%%%%%%%%%%%%%%%%%%%%%%%%%%%%%%%%%%%%%%%%%
